icon-themes/sifr_svg/cmd/lc_solverdialog.svg

<svg viewBox="0 0 24 24" xmlns="http://www.w3.org/2000/svg"><path d="m12 2a10 10 0 0 0 -10 10 10 10 0 0 0 10 10 10 10 0 0 0 10-10 10 10 0 0 0 -10-10zm3.523438 6 1.476562 1.4238281-7 7.5761719-4-3.904297 1.3183594-1.585937 2.6816406 2.490234z" fill="#555753"/></svg>

<svg xmlns="http://www.w3.org/2000/svg" viewBox="0 0 24 24">
  <path
     style="fill:#555753"
     d="M 12 2 A 10 10 0 0 0 2 12 A 10 10 0 0 0 12 22 A 10 10 0 0 0 22 12 A 10 10 0 0 0 12 2 z M 15.523438 8 L 17 9.4238281 L 10 17 L 6 13.095703 L 7.3183594 11.509766 L 10 14 L 15.523438 8 z "
     />
</svg>
